poland-cool.svg

<svg height="512pt" viewBox="0 0 512 512" width="512pt" xmlns="http://www.w3.org/2000/svg"><path d="m398.72 20.11c19.08 10.66 35.61 28.45 39.48 50.57 2.03 8.3 1.2 16.88 1.38 25.34.28 11.14-3 21.96-4.14 32.96-.05 8.13-1.47 17.55 4.41 24.17 6.77 7.34 19.56 7.39 26.67.41 4.79-3.92 7.5-9.59 10.11-15.05 3.63-8.17 4.82-17.14 6.42-25.87 2.6 5.04 3.24 10.73 3.94 16.27 2.81 16.17 1.85 32.78-1.14 48.86-1.55 7-4.4 13.62-6.36 20.51-.03.08-.11.22-.14.29-3.73 4.92-4.93 11.18-8.6 16.15-2.84 5.66-7.18 10.26-11.02 15.23-1.24-5.14-.25-10.47-1.16-15.66-1.59-10.62-4.25-21.29-9.42-30.77.11 6.49-.96 13.27-5.03 18.53-3.85 5.21-10.34 9.03-16.97 7.66-6.27-1.61-11.22-7.3-11.94-13.74-2.03-13.67-1.39-28.34-8.43-40.74-5.86-11.42-16.66-19.82-28.81-23.67 1.85 7 4.02 14.06 4.01 21.37-.04 6.47.51 13.15-1.73 19.36-2.93 9.53-10.08 17.98-19.65 21.26-5.3 1.78-11.83 2.19-16.27-1.8-7.26-6.13-8.05-16.53-8.52-25.38-16.03 17.09-22.45 41.28-22.02 64.28-4.62-5.69-9.17-11.48-12.53-18.03-6.3-11.75-11.65-24.12-14.39-37.23-1.8-12.4-3.53-25-1.83-37.52 1.03-7.67 1.47-15.51 4.08-22.87 3.7-13.57 9.47-26.67 17.77-38.08-.4 5.36-1.82 10.63-1.52 16.04.27 8.35-1.08 17.06 2.21 25 2 4.65 4.56 9.83 9.58 11.79 6.17 3.45 13.97 1.66 19.5-2.21 3.87-3.56 6.78-8.35 7.67-13.58.44-5.64.55-11.53-1.56-16.88-1.44-3.51-2.43-7.17-2.89-10.93.26-5.48-1.66-10.79-1.01-16.26.74-13.43 6.38-26.86 16.73-35.7-2.19 12.31-1.4 25.78 5.58 36.52 3.45 5.1 8.59 9.33 14.68 10.74 4.06.33 8.18.35 12.24-.02 5.29-1.2 9.64-5.2 12.35-9.77 9.36-15.92 5.43-35.6-1.73-51.55z" fill="#f48f0b"/><g fill="#fff"><path d="m25.34 80.3c10.34-7.25 23.23-9.68 35.65-9.73 92.52.08 185.04-.07 277.56.07-.34 5.24.48 10.37 1.33 15.51.46 3.76 1.45 7.42 2.89 10.93 2.11 5.35 2 11.24 1.56 16.88-.89 5.23-3.8 10.02-7.67 13.58-5.53 3.87-13.33 5.66-19.5 2.21-5.02-1.96-7.58-7.14-9.58-11.79-3.29-7.94-1.94-16.65-2.21-25-.3-5.41 1.12-10.68 1.52-16.04-8.3 11.41-14.07 24.51-17.77 38.08-2.61 7.36-3.05 15.2-4.08 22.87-1.7 12.52.03 25.12 1.83 37.52 2.74 13.11 8.09 25.48 14.39 37.23 3.36 6.55 7.91 12.34 12.53 18.03 6.16 6.39 12.33 12.92 19.68 17.97 3.54 2.59 8.49 3.61 10.58 7.81 1.55.38 3.13.7 4.66 1.18-.51.01-1.54.03-2.06.04-1.82.71-3.74.96-5.67.89-113.66-.33-227.32-.7-340.98-1.04v-133.87c.79-17.42 10.9-33.8 25.34-43.33z"/><path d="m361.18 70.71c13.1-.22 26.21-.16 39.31-.04l-.04.99c-2.71 4.57-7.06 8.57-12.35 9.77-4.06.37-8.18.35-12.24.02-6.09-1.41-11.23-5.64-14.68-10.74z"/><path d="m438.2 70.68c7.61-.05 15.27-.51 22.84.59 26.41 1.82 49.15 25.07 50.96 51.39v135.84c-27.34-.09-54.68.16-82.01.4-2.93.01-5.85-.08-8.75-.38 1.23-2 3.39-1.88 5.46-1.69 5.15-4.03 11.28-6.57 16.34-10.72 5.85-5.09 12.15-9.77 16.69-16.16 3.84-4.97 8.18-9.57 11.02-15.23 3.67-4.97 4.87-11.23 8.6-16.15.03-.07.11-.21.14-.29 1.96-6.89 4.81-13.51 6.36-20.51 2.99-16.08 3.95-32.69 1.14-48.86-.7-5.54-1.34-11.23-3.94-16.27-1.6 8.73-2.79 17.7-6.42 25.87-2.61 5.46-5.32 11.13-10.11 15.05-7.11 6.98-19.9 6.93-26.67-.41-5.88-6.62-4.46-16.04-4.41-24.17 1.14-11 4.42-21.82 4.14-32.96-.18-8.46.65-17.04-1.38-25.34z"/></g><path d="m377.97 131.56c12.15 3.85 22.95 12.25 28.81 23.67 7.04 12.4 6.4 27.07 8.43 40.74.72 6.44 5.67 12.13 11.94 13.74 6.63 1.37 13.12-2.45 16.97-7.66 4.07-5.26 5.14-12.04 5.03-18.53 5.17 9.48 7.83 20.15 9.42 30.77.91 5.19-.08 10.52 1.16 15.66-4.54 6.39-10.84 11.07-16.69 16.16-5.06 4.15-11.19 6.69-16.34 10.72-2.07-.19-4.23-.31-5.46 1.69-9.41 4.72-20.04 5.94-30.35 7.25-6.08.98-12.09-.68-18.11-1.26-8.36-.93-16.27-3.91-24.07-6.9-1.53-.48-3.11-.8-4.66-1.18-2.09-4.2-7.04-5.22-10.58-7.81-7.35-5.05-13.52-11.58-19.68-17.97-.43-23 5.99-47.19 22.02-64.28.47 8.85 1.26 19.25 8.52 25.38 4.44 3.99 10.97 3.58 16.27 1.8 9.57-3.28 16.72-11.73 19.65-21.26 2.24-6.21 1.69-12.89 1.73-19.36.01-7.31-2.16-14.37-4.01-21.37z" fill="#fecb4c"/><path d="m479.35 198.57c.03-.07.11-.21.14-.29-.03.08-.11.22-.14.29z" fill="#fecb4c"/><path d="m0 257.5c113.66.34 227.32.71 340.98 1.04 1.93.07 3.85-.18 5.67-.89.52-.01 1.55-.03 2.06-.04 7.8 2.99 15.71 5.97 24.07 6.9 6.02.58 12.03 2.24 18.11 1.26 10.31-1.31 20.94-2.53 30.35-7.25 2.9.3 5.82.39 8.75.38 27.33-.24 54.67-.49 82.01-.4v131.15c-1.34 16.18-10.32 31.43-23.51 40.82-9.54 7.17-21.55 10.66-33.41 10.69-132.7-.01-265.4-.01-398.1 0-12.34.03-24.79-3.93-34.57-11.53-12.62-9.38-21.05-24.25-22.41-39.94z" fill="#ed1f24"/></svg>

<?xml version="1.0" encoding="UTF-8" ?>
<!DOCTYPE svg PUBLIC "-//W3C//DTD SVG 1.1//EN" "http://www.w3.org/Graphics/SVG/1.1/DTD/svg11.dtd">
<svg width="512pt" height="512pt" viewBox="0 0 512 512" version="1.1" xmlns="http://www.w3.org/2000/svg">
<g id="#f48f0bff">
<path fill="#f48f0b" opacity="1.00" d=" M 398.72 20.11 C 417.80 30.77 434.33 48.56 438.20 70.68 C 440.23 78.98 439.40 87.56 439.58 96.02 C 439.86 107.16 436.58 117.98 435.44 128.98 C 435.39 137.11 433.97 146.53 439.85 153.15 C 446.62 160.49 459.41 160.54 466.52 153.56 C 471.31 149.64 474.02 143.97 476.63 138.51 C 480.26 130.34 481.45 121.37 483.05 112.64 C 485.65 117.68 486.29 123.37 486.99 128.91 C 489.80 145.08 488.84 161.69 485.85 177.77 C 484.30 184.77 481.45 191.39 479.49 198.28 C 479.46 198.36 479.38 198.50 479.35 198.57 C 475.62 203.49 474.42 209.75 470.75 214.72 C 467.91 220.38 463.57 224.98 459.73 229.95 C 458.49 224.81 459.48 219.48 458.57 214.29 C 456.98 203.67 454.32 193.00 449.15 183.52 C 449.26 190.01 448.19 196.79 444.12 202.05 C 440.27 207.26 433.78 211.08 427.15 209.71 C 420.88 208.10 415.93 202.41 415.21 195.97 C 413.18 182.30 413.82 167.63 406.78 155.23 C 400.92 143.81 390.12 135.41 377.97 131.56 C 379.82 138.56 381.99 145.62 381.98 152.93 C 381.94 159.40 382.49 166.08 380.25 172.29 C 377.32 181.82 370.17 190.27 360.60 193.55 C 355.30 195.33 348.77 195.74 344.33 191.75 C 337.07 185.62 336.28 175.22 335.81 166.37 C 319.78 183.46 313.36 207.65 313.79 230.65 C 309.17 224.96 304.62 219.17 301.26 212.62 C 294.96 200.87 289.61 188.50 286.87 175.39 C 285.07 162.99 283.34 150.39 285.04 137.87 C 286.07 130.20 286.51 122.36 289.12 115.00 C 292.82 101.43 298.59 88.33 306.89 76.92 C 306.49 82.28 305.07 87.55 305.37 92.96 C 305.64 101.31 304.29 110.02 307.58 117.96 C 309.58 122.61 312.14 127.79 317.16 129.75 C 323.33 133.20 331.13 131.41 336.66 127.54 C 340.53 123.98 343.44 119.19 344.33 113.96 C 344.77 108.32 344.88 102.43 342.77 97.08 C 341.33 93.57 340.34 89.91 339.88 86.15 C 340.14 80.67 338.22 75.36 338.87 69.89 C 339.61 56.46 345.25 43.03 355.60 34.19 C 353.41 46.50 354.20 59.97 361.18 70.71 C 364.63 75.81 369.77 80.04 375.86 81.45 C 379.92 81.78 384.04 81.80 388.10 81.43 C 393.39 80.23 397.74 76.23 400.45 71.66 C 409.81 55.74 405.88 36.06 398.72 20.11 Z" />
</g>
<g id="#ffffffff">
<path fill="#ffffff" opacity="1.00" d=" M 25.34 80.30 C 35.68 73.05 48.57 70.62 60.99 70.57 C 153.51 70.65 246.03 70.50 338.55 70.64 C 338.21 75.88 339.03 81.01 339.88 86.15 C 340.34 89.91 341.33 93.57 342.77 97.08 C 344.88 102.43 344.77 108.32 344.33 113.96 C 343.44 119.19 340.53 123.98 336.66 127.54 C 331.13 131.41 323.33 133.20 317.16 129.75 C 312.14 127.79 309.58 122.61 307.58 117.96 C 304.29 110.02 305.64 101.31 305.37 92.96 C 305.07 87.55 306.49 82.28 306.89 76.92 C 298.59 88.33 292.82 101.43 289.12 115.00 C 286.51 122.36 286.07 130.20 285.04 137.87 C 283.34 150.39 285.07 162.99 286.87 175.39 C 289.61 188.50 294.96 200.87 301.26 212.62 C 304.62 219.17 309.17 224.96 313.79 230.65 C 319.95 237.04 326.12 243.57 333.47 248.62 C 337.01 251.21 341.96 252.23 344.05 256.43 C 345.60 256.81 347.18 257.13 348.71 257.61 C 348.20 257.62 347.17 257.64 346.65 257.65 C 344.83 258.36 342.91 258.61 340.98 258.54 C 227.32 258.21 113.66 257.84 0.00 257.50 L 0.00 123.63 C 0.79 106.21 10.90 89.83 25.34 80.30 Z" />
<path fill="#ffffff" opacity="1.00" d=" M 361.18 70.71 C 374.28 70.49 387.39 70.55 400.49 70.67 L 400.45 71.66 C 397.74 76.23 393.39 80.23 388.10 81.43 C 384.04 81.80 379.92 81.78 375.86 81.45 C 369.77 80.04 364.63 75.81 361.18 70.71 Z" />
<path fill="#ffffff" opacity="1.00" d=" M 438.20 70.68 C 445.81 70.63 453.47 70.17 461.04 71.27 C 487.45 73.09 510.19 96.34 512.00 122.66 L 512.00 258.50 C 484.66 258.41 457.32 258.66 429.99 258.90 C 427.06 258.91 424.14 258.82 421.24 258.52 C 422.47 256.52 424.63 256.64 426.70 256.83 C 431.85 252.80 437.98 250.26 443.04 246.11 C 448.89 241.02 455.19 236.34 459.73 229.95 C 463.57 224.98 467.91 220.38 470.75 214.72 C 474.42 209.75 475.62 203.49 479.35 198.57 C 479.38 198.50 479.46 198.36 479.49 198.28 C 481.45 191.39 484.30 184.77 485.85 177.77 C 488.84 161.69 489.80 145.08 486.99 128.91 C 486.29 123.37 485.65 117.68 483.05 112.64 C 481.45 121.37 480.26 130.34 476.63 138.51 C 474.02 143.97 471.31 149.64 466.52 153.56 C 459.41 160.54 446.62 160.49 439.85 153.15 C 433.97 146.53 435.39 137.11 435.44 128.98 C 436.58 117.98 439.86 107.16 439.58 96.02 C 439.40 87.56 440.23 78.98 438.20 70.68 Z" />
</g>
<g id="#fecb4cff">
<path fill="#fecb4c" opacity="1.00" d=" M 377.97 131.56 C 390.12 135.41 400.92 143.81 406.78 155.23 C 413.82 167.63 413.18 182.30 415.21 195.97 C 415.93 202.41 420.88 208.10 427.15 209.71 C 433.78 211.08 440.27 207.26 444.12 202.05 C 448.19 196.79 449.26 190.01 449.15 183.52 C 454.32 193.00 456.98 203.67 458.57 214.29 C 459.48 219.48 458.49 224.81 459.73 229.95 C 455.19 236.34 448.89 241.02 443.04 246.11 C 437.98 250.26 431.85 252.80 426.70 256.83 C 424.63 256.64 422.47 256.52 421.24 258.52 C 411.83 263.24 401.20 264.46 390.89 265.77 C 384.81 266.75 378.80 265.09 372.78 264.51 C 364.42 263.58 356.51 260.60 348.71 257.61 C 347.18 257.13 345.60 256.81 344.05 256.43 C 341.96 252.23 337.01 251.21 333.47 248.62 C 326.12 243.57 319.95 237.04 313.79 230.65 C 313.36 207.65 319.78 183.46 335.81 166.37 C 336.28 175.22 337.07 185.62 344.33 191.75 C 348.77 195.74 355.30 195.33 360.60 193.55 C 370.17 190.27 377.32 181.82 380.25 172.29 C 382.49 166.08 381.94 159.40 381.98 152.93 C 381.99 145.62 379.82 138.56 377.97 131.56 Z" />
<path fill="#fecb4c" opacity="1.00" d=" M 479.35 198.57 C 479.38 198.50 479.46 198.36 479.49 198.28 C 479.46 198.36 479.38 198.50 479.35 198.57 Z" />
</g>
<g id="#ed1f24ff">
<path fill="#ed1f24" opacity="1.00" d=" M 0.00 257.50 C 113.66 257.84 227.32 258.21 340.98 258.54 C 342.91 258.61 344.83 258.36 346.65 257.65 C 347.17 257.64 348.20 257.62 348.71 257.61 C 356.51 260.60 364.42 263.58 372.78 264.51 C 378.80 265.09 384.81 266.75 390.89 265.77 C 401.20 264.46 411.83 263.24 421.24 258.52 C 424.14 258.82 427.06 258.91 429.99 258.90 C 457.32 258.66 484.66 258.41 512.00 258.50 L 512.00 389.65 C 510.66 405.83 501.68 421.08 488.49 430.47 C 478.95 437.64 466.94 441.13 455.08 441.16 C 322.38 441.15 189.68 441.15 56.98 441.16 C 44.64 441.19 32.19 437.23 22.41 429.63 C 9.79 420.25 1.36 405.38 0.00 389.69 L 0.00 257.50 Z" />
</g>
</svg>
